X:1
T: The Girls of Banbridge
C:
R:Jig
Q:180
K:D
M:6/8
L:1/16
B2|A2F2A2 d2c2B2|B2A2G2 F2E2D2|F2A2D2 F2E2D2|C2D2E2 E2F2G2|A2F2A2 d2c2B2|B2A2G2 F2E2D2|f2a2f2 g2e2c2|d2e2d2 d4B2|
A2F2A2 d2c2B2|B2A2G2 F2E2D2|F2A2D2 F2E2D2|C2D2E2 E2F2G2|A2F2A2 d2c2B2|B2A2G2 F2E2D2|f2a2f2 g2e2c2|d2e2d2 d4B2|
A2F2A2 d2f2a2|a2g2f2 e2f2g2|f2a2g2 f2e2d2|c2d2e2 e4A2|A2F2A2 d2f2a2|a2g2f2 e2f2g2|f2g2f2 g2e2c2|d2e2d2 d4B2|
A2F2A2 d2f2a2|a2g2f2 e2f2g2|f2a2g2 f2e2d2|c2d2e2 e4A2|A2F2A2 d2f2a2|a2g2f2 e2f2g2|f2g2f2 g2e2c2|d2e2d2 d4||
